X: 5
T: Pigeon on the Gate
M: 4/4
L: 1/8
C: Trad.
S: Jerry Holland
R: Reel
K: Em
A \
| BE (3EEE {c}BAFA | B2 Bc BAFG | AD (3DDD ADFG | A2 Ad BAGA |
| BE (3EEE {c}BAFA | B2 Bc BAFE | DFAd fdef | dBAF EFG :|
|: A \
| Be (3eee dfed | Beef gefd | BABc dedB | AF d2 defd |
| Be (3eee dfed | Beef gefd | BABc dedB | AFDF EFG :|2 AFDF E2 E |]
%%sep 1 1 500
